X:1
T:7 Lieder
T:The Poet's Life
T:7 Lieder
T:Edward Elgar
T:4. The Poet's Life Dichterleben 
T:Sophie Jewett German Lyrics by Ed. Sachs 
T:Creative Commons copyright waiver (CC0 1.0 Universal)
T:Creative Commons copyright waiver (CC0 1.0 Universal)
T:Creative Commons copyright waiver (CC0 1.0 Universal)
T:Creative Commons copyright waiver (CC0 1.0 Universal)
T:Creative Commons copyright waiver (CC0 1.0 Universal)
T:Creative Commons copyright waiver (CC0 1.0 Universal)
C:Edward Elgar
Z:Sophie Jewett as Ellen Burroughs
Z:Creative Commons copyright waiver (CC0 1.0 Universal)
%%score ( 1 2 ) { ( 3 6 ) | ( 4 5 7 ) }
L:1/8
Q:1/4=116
M:4/4
K:Eb
V:1 treble nm="Voice"
V:2 treble 
V:3 treble nm="Piano"
V:6 treble 
V:4 bass 
V:5 bass 
V:7 bass 
V:1
"^Allegro moderato." z8 | z8 | z8 |[Q:1/4=114] z8[Q:1/4=108] | %4
w: ||||
w: ||||
[Q:1/4=116] z4 z!p!"^We shouls send German\nwords to Lieder.net\n" E F G | A4- A A G F | %6
w: A po- et|sang, _ so light of|
w: Ein Dich- ter|sang, _ die Wei- se|
!<(! F3/2 c/!<)! c4 z!mp! c | (c2 B) G!<(! (BAB) c!<)! |"^poco rit." G4- G!>(! F G D!>)! | %9
w: heart was he, A|song _ that thrilled _ _ with|joy _ in ev’- ry|
w: klang so Hell, \- Ein|Lied, _ das Freu- * * de|barg _ in je- dem|
 (F2 E2) z2 z!mp! E |"^cresc." c3 =A G!<(! ^F G A!<)! |!mf! =A3/2"^cresc." B/ B2- B z B2 | %12
w: word: _ It|qui- ver’d with ec- stat- ic|me- lo- dy; _ It|
w: Wort; _ Es|strömt aus sei- nem ju- gend-|fri- schen Quell; _ Als|
!mf! e3 c B!<(! =A B c!<)! | %13
w: laughed as sun- shine laughs up-|
w: lacht’ die Son- ne ü- bers|
[Q:1/4=114]!f!"^rit. e dim." c3/2 d/[Q:1/4=109] d4-"^" !tenuto!.d!p! B | %14
w: on the sea; _ It|
w: Was- ser hell; _ Als|
"^a tempo"[Q:1/4=116] (B2 c) (d c B G E | D3 D"^" F4) |"^"!mf! !tenuto!.G2 G G B3/2 B/ B!<(! G | %17
w: caught _ a mea- sure from each|lilt- ing bird;|But, though the song rang out ex-|
w: klän- * ge Vo- gel- sang aus|grü- nem Ort;|Doch, ob das Lied auch sei- nen|
 d3/2!<)! c/ c4 z!p! c | c3 G A3!mp! c | c c c3/2 G/ A2 z!p! =E | G2 F2 z2 z2 | %21
w: ult- ant- ly, The|world pass’d by, with|hea- vy step and loud, None|heed- ing,|
w: Bu- nen schwell; Die|Welt ging ach- tungs-|los vor- bei und laut, Und|Kei- ner|
!pp! G2"^" !tenuto!.F2 F G A B |[Q:1/4=118] _c8-[Q:1/4=120] | %23
w: save that, part- ed from the|crowd,|
w: hört es, ab- seits nur und|traut|
"^" !breath!!tenuto!.c2!pp![Q:1/4=104] F2 F G3 | E4 z4[Q:1/4=116] | z8 | z8 | %27
w: _ Two lo- vers|heard.|||
w: _ Ein lie- bend|Paar.|||
[Q:1/4=114] z8[Q:1/4=112] |[Q:1/4=116] z4 z!p! E F G | A4-"^" A A G F | %30
w: |There fell a|day _ when sud- den|
w: |Da kam ein|Tag _ mit tie- fem|
!<(! F _c!<)! c6-[Q:1/4=114][Q:1/4=112] | c[Q:1/4=100] !fermata!z!p!"^rit. e dim." B2 B3 A | %32
w: sor- row smote|_ The po- et’s|
w: Lei- de ringt|_ Des Dich- ter’s|
"^a tempo"[Q:1/4=116] _G4 z2!p! _D2 |[Q:1/4=117]"^cresc. molto e stringendo" _G3 G F2 _F2 | %34
w: life. Un-|he- rald- ed it|
w: Herz. Es|kam mit Stur- mes-|
[Q:1/4=117] E6 z2 |!mp![Q:1/4=118] A A2 A G2 _G2 |[Q:1/4=119] F4 z!mf!"^sempre cresc." F F F | %37
w: came,|Blott- ing the sun- touch’d|page where- on he|
w: weh’n|Trä- nen be- strew’n das|Blatt, wo- rauf er|
[Q:1/4=120] B3!<(! B =A2 _A2!<)! |"^rit."[Q:1/4=118] G4 z2!f! G2 | %39
w: wrote His gold- en|song. Ah!|
w: singt Sein gold’- nes|Lied. Ach|
"^a tempo"[Q:1/4=114] c3 A F =E F3/2 G/ | (G2"^" !tenuto!.A4) A2 | _d3 B!<(! A G A B!<)! | %42
w: then, from all from all re-|mote, _ He|sang the grief that had nor|
w: dann, von Schmer- zen heiss um-|ringt, _ Schickt|er sein sehn- suchts- vol- les|
 B3/2 c/"^""^dim." !tenuto!.c4!mp! F2 | G2!>(! A2 =E2 F2!>)! | z4 z2!p! F2 | %45
w: hope nor name In|God’s ear on- ly,|In|
w: Hül- fe- fleh’n Zum|Thron des Schöp- fers,|Zum|
[Q:1/4=114]"^rit. e dim." C2 F2[Q:1/4=112] (G3 F) |"^più lento"[Q:1/4=104] F4 z2!pp! F2 | %47
w: God’s ear on- *|ly; But|
w: Thron des Schöp- *|fers. Ein|
 A4 !>!A3 G | (G2 F4) z2 | F3 F F4 | (F2"^" E4)!mp!"^cresc." E2 | %51
w: one sob- bing|note _|Reached the world's|heart, _ And|
w: Seuf- zer nur|dringt _|In der Welt|Herz, _ und|
[Q:1/4=105]"^accel. e cresc." =E3 E F2 F2 |[Q:1/4=107] ^F3 F G2 G2 | %53
w: swift- ly, swift- ly,|in the wake Of|
w: ||
[Q:1/4=108]!mf! A A A A[Q:1/4=109]!<(! =A2 B B!<)! | %54
w: bit- ter- ness and pas- sion and|
w: |
"^rit."[Q:1/4=110] (!>!=B2 c2)!<(! (F2 _B2)!<)! |!ff![Q:1/4=112] (B4 e4) | d3 c (c2 B2) | %57
w: heart- * break, _|There _|fol- low’d fame; _|
w: |||
 z B!<(! c d!<)! (fe) B G | (!>!d3 c) c3 z |"^tutta forza""^largamente"[Q:1/4=110] c2 d e gfe c | %60
w: One sob- bing note _ reach’d the|world's _ heart,|There fol- low’d fame _ _ and|
w: |||
"^accel."[Q:1/4=112] (c2"^" B2)[Q:1/4=116] A2 G2 |"^rit."[Q:1/4=110] c4[Q:1/4=104] d (d2 e) | %62
w: swift- ly, swift- ly|* fol- low’d _|
w: ||
 e6 z2 | !fermata!z8 |] %64
w: fame.||
w: ||
V:2
 x8 | x8 | x8 | x8 | x8 | x8 | x8 | x8 | x8 | x8 | x8 | x8 | x8 | x8 | x8 | x8 | x8 | x8 | x8 | %19
w: |||||||||||||||||||
 x8 | x8 | x8 | x8 | x8 | x8 | x8 | x8 | x8 | x8 | x8 | x8 | x8 | x8 | x8 | x8 | x8 | x8 | x8 | %38
w: |||||||||||||||||||
 x8 | x8 | x8 | x8 | x8 | x8 | x8 | x8 | x8 | x8 | x8 | x8 | x8 | x8 | x8 | x8 | x8 | x8 | x8 | %57
w: |||||||||||||||||||
 x8 | x8 | z2 de fed x | x8 | (c2 BA) G (F2 E) | E6 x2 | x8 |] %64
w: ||||there _ _ _ _ _|_||
V:3
!f! z!mf!!<(! ([Bb][cc'][dd']!<)!!>(! [cc'][Bb][Gg][Ee])!>)! | ([Dd]3 [Cc]) [Cc]2 [B,B]2- | %2
!p!!<(! [B,B] (Bc{/e}d!<)!!>(! cBGE)!>)! |"_dim. e rit." (D6 C2) |!pp!"^a tempo" E4- E2 z2 | %5
 z ([A,E]2 [A,E]2 [A,E]2 [A,E]) |!<(! z ([A,CF]2 [A,CF]2 [A,CF]2 [A,B,F])!<)! | %7
!mp! z [G,B,] [B,E]2 z [E,A,] [A,E]2 |"_colla voce" z ([E,B,][G,E][E,B,]) [A,D]4 | %9
"_a tempo"!mp! z!<(! (Bc{/e}d!<)!!>(! cBGE)!>)! | (c3 =A G^FGA) | (=A2 B4) B2 | %12
!f! e3 c!<(! B=ABc!<)! | (c2 d4) z!p! [F,B,D] | %14
!p!"_a tempo" z [E,B,E]2 [E,B,E] z [E,B,E]2 [E,B,E] | %15
 z [E,=A,D]2 [E,_A,C] z!<(! [E,A,C][D,A,B,][A,B,F]!<)! |!mf! z ([B,B][Cc][Dd]!<(! [Ff][Ee]BG)!<)! | %17
!f! (d2 c4) z c |!p! c4- c2 z2 | %19
!<(! !tenuto![B,C=EG]!tenuto![B,CEG]!<)!!>(!!tenuto![B,CEG]!tenuto![B,CEG]!>)!"_a tempo" [A,CFA]2 z!p! [B,_DE] | %20
 G2 F4 =E2 | G2 F2!pp! [CFc]4 | [_C_c-]8 |!mp! c2 z2!pp! [A,D]4 | %24
"_a tempo"!mf! z!<(! ([Bb][cc'][dd']!<)!!>(! [cc'][Bb][Gg][Ee])!>)! | ([Dd]3 [Cc] B2 ^F2 | %26
 [=G,B,=G]4) z!pp! [B,EG]2 [B,EG] | %27
"_poco rit." z!<(! [A,EA] z [=A,E=A]!<)! z!>(! [B,EB] z [_A,D]!>)! |"_a tempo" E6 z2 | %29
 z ([A,E]2 [A,E]2 [A,E]2 [A,E]) | z ([A,_CF]2 [A,CF]2!<(! [A,CF]2 [A,CF]-)!<)! | %31
 [A,CF]2!pp!"_rit. e dim." (([B,_D_G]2 [_CDF]4)) |!ppp! _G8 | %33
"_cresc. molto e stringendo" (_G2 G2 F2 _F2 | E2) (E2 B2 E2) | (A2 A2 G2 _G2 | %36
!mp! F2)!<(! (F2!<)!!>(! c2!>)!"_cresc." F2) | (B2 B2 =A2 _A2 | G2) (G2 !>!_d2 c2) | %39
!f!"_a tempo" !tenuto![CFc][F,C] [CF]2 F=EFG | G2 A6 | _d3 B (AGAB) | (B2 c4)!p! [F,F] z | %43
 [G,G] z [A,A] z [=E,=E] z [F,F] z |"_dim." [G,G] z [A,A] z [=E,=E] z [F,F] z | %45
"_colla voce" [A,CF]2 z2 ([B,C=E]4 | [A,CF]2)!pp! FF FFFF | %47
 [FA][FA][FA][FA]!>(! [_D=EA][DEA][DEA][DEA] | [CG][CG]!>)![CF][CF]!mp!!>(! (c2 F2)!>)! | %49
 FFFF [_C=DF][CDF][CDF][CDF] | [B,F][B,F][B,E][B,E]!mp!!>(! (B2 E2)!>)! | %51
"_accel. e cresc." [=E,B,=E] [E,B,E]2 [E,B,E] [F,CF] [F,CF]2 [F,CF] | %52
 [_G,C_G] [G,CG]2 [G,CG] [=G,E=G] [G,EG]2 [G,EG] | %53
!mf! [A,EA][A,EA][A,EA][A,EA]!<(! [=A,E=A][A,EA][B,EB][B,EB]!<)! | %54
!f! ([=B,=B]2 [Cc]2 [F,F]2) [_Bf_b]2 |!ff! [Beb]2 cd cBGE | [DAd]3 [CAc] (([CA-c]2 [B,AB]2)) | %57
 z [EB]BB BB B!<(! ([Geg]!<)! | (!>![dbd']3) [cac']) [cac']3 z | %59
"_colla voce" z [Cc][Dd][Ee] [Gg][Ff][Ee][Cc] |"_accel." [CEc]2 [B,EB]2 !>![A,EA]2 !>![_D=EG]2 | %61
"_rit." (c2 BA) (G F2 E) | [G,E]2- [G,E] z [GBeg]2- [GBeg] z | !fermata![E,G,E]8 |] %64
V:4
!ped! !fermata![E,,,E,,] [B,,E,G,B,][B,,E,G,B,][B,,E,G,B,]!ped-up!!ped! [G,,,G,,] [B,,E,B,][B,,E,B,][B,,E,B,]!ped-up! | %1
!ped!"^dim." z [F,A,][F,A,][F,A,]!ped-up! [F,A,][F,A,] [F,A,]2 | %2
 E,, [B,,G,]2 [B,,G,] G,, [E,B,]2 [E,B,] |!ped! A,, [E,A,]2 [E,A,] z [E,A,]2 [E,A,]!ped-up! | %4
!ped! z2 (B,,2 E,2 B,,2)!ped-up! |!ped! z2 (C,2 E,2 C,2)!ped-up! |!ped! z2 (A,,2 E,2 D,2)!ped-up! | %7
 [E,,E,]4 F,,4 | B,,4- [B,,,B,,]4 | z2 [B,,G,]4 B,2 | [E,G,][E,G,][E,G,][E,G,] D,4 | %11
 (G,,2 D,2 G,2 D,2) |!ped! z [G,C][G,C][G,C]!ped-up!!ped! z [F,C][F,B,][F,=A,]!ped-up! | %13
 (B,,2 F,2 B,4) | G,,4 G,,4 | (_G,,2 F,,2 B,,,4) | %16
!ped! z [B,,=G,][B,,G,][B,,G,]!ped-up!!ped! z [E,G,][E,G,] z!ped-up! | %17
!ped! z [E,A,C][E,A,C][A,C] [A,C][A,C]!ped-up![A,C][A,C] | [G,B,][G,B,][G,B,][G,B,] [F,A,]2 z2 | %19
 [F,,C,G,]4 [F,,C,F,]2 G,,2 | A,,6 G,,2 | A,,4 A,4 |"^accel."!ped! A,8 | %23
"^colla voce" F,,2 z2!ped-up! B,,4 | z2 [B,,G,]4 B,2- | B,2 =A,2[I:staff -1] B,2[I:staff +1] B,,2 | %26
 E,,!<(! (B,,C,{/E,}D,)!<)!!>(! (C,B,,G,,E,,)!>)! | (C,,2 _C,,2 B,,,2-) [B,,,B,,-]2 | %28
 B,,2 (B,,2 E,2 B,,2) | z2 (C,2 E,2 C,2) | z2 (A,,2 E,2 __E,2) | [_D,,_D,]4- [D,,D,]4 | %32
!ped! z2 _D,2 _G,2 D,2!ped-up! |!ped! _G,2 (G,2 F,2 _F,2!ped-up! | %34
!ped! (E,2) E,2 B,2) E,2-!ped-up! |!ped! (E,2 A,2 G,2 _G,2!ped-up! | %36
!ped! F,2) (F,2 C2 F,2-)!ped-up! |!ped! F,2 (B,2 =A,2 _A,2!ped-up! | %38
!ped! G,2) (G,2 !>!_D2 C2)!ped-up! |!ped! [A,,,A,,]4!ped-up! [_D,,_D,]2 [C,,C,]2 | z2 C,2 F,2 C,2 | %41
!ped! [B,,,B,,] [F,B,][F,B,][F,B,]!ped-up!!ped! E,, [E,B,][E,A,][E,G,]!ped-up! | %42
 z [E,A,][E,A,][E,A,] [=E,A,][E,A,] [A,,,A,,] z | %43
 .[B,,,B,,] z .[F,,,F,,] z .[G,,,G,,] z .[A,,,A,,] z | %44
 .[B,,,B,,] z [F,,,F,,] z [G,,,G,,] z [A,,,A,,][B,,,B,,] | [C,,C,]2 z2 (C,4 | F,2) z2 z4 | %47
 z4 (B,4 | A,4)[I:staff -1] [A,C][A,C][A,C][A,C] |!pp! [A,C][A,C][A,C][A,C][I:staff +1] (A,4 | %50
 G,4) [G,B,][G,B,][G,B,][G,B,] | .[G,,,G,,]2 .[_D,,_D,]2 .[A,,,A,,]2 .[C,,C,]2 | %52
 .[=A,,,=A,,]2 .[E,,E,]2 .[B,,,B,,]2 .[E,,E,]2 | [_C,,_C,]4 [=C,,=C,]2 [B,,,B,,]2 | %54
!ped! [=A,,,=A,,] [E,F,][E,F,][E,F,]!ped-up!!ped! [_A,,,_A,,]2 [A,B,D][A,B,D]!ped-up! | %55
!ped! z [G,B,E][G,B,E][G,B,E] [G,B,E][G,B,E][G,B,E][G,B,]!ped-up! | %56
!ped! [F,,,F,,] [F,A,][F,A,][E,F,A,]!ped-up! [F,A,][F,A,] [F,A,]2 | %57
!ped! z [B,,G,][B,,G,][B,,G,] [B,,G,][B,,G,] z2!ped-up! | %58
!ped! z [E,A,E][E,A,E][E,A,E] [E,A,E][E,A,E][E,A,C][E,A,C]!ped-up! | z C,D,E, G,F, !>!C,!>!D, | %60
 [G,,E,]4 !>![C,,C,]2 !>![B,,,B,,]2 | [A,,,A,,]2 [F,,,F,,]2 [B,,,B,,]4 | %62
!ped! [E,,E,]2- [E,,E,] z [E,B,E]2- [E,B,E] z | !fermata![E,,,E,,]8!ped-up! |] %64
V:5
 x8 | F,,3 E, E,E, D,B,, | E,,4 G,,4 | (A,,4 A,,,4) | E,,,8 | E,,8 | E,,8 | x8 | x8 | (E,,6 E,2) | %10
 x8 | G,,8 | [C,,C,]4 F,,4 | (B,,6 _A,,2) | x8 | x8 | E,,4 G,,3 E,, | [A,,,A,,]4- [A,,,A,,]2 z2 | %18
 x8 | x8 | x8 | x8 | x8 | x8 | E,,6 E,2 | F,2 E,2 D,2 x2 | x8 | x8 | E,,8 | E,,8 | E,,6 __E,,2 | %31
 x8 | _G,,8 | _G,,8 | =G,,8 | A,,8 | =A,,8 | B,,8 | B,,4 z4 | x8 | F,,8 | x8 | A,,6 x2 | x8 | x8 | %45
 x8 | x8 | x8 | x8 | x8 | x8 | x8 | x8 | x8 | x8 | [G,,,G,,]8 | x4 E,E,D,B,, | E,,6 [E,,,E,,]2 | %58
 [A,,,A,,]8 |{/A,,,} A,,6 A,,2 | x8 | x8 | x8 | x8 |] %64
V:6
 x8 | x8 | x8 | x8 | z [G,B,]2 [G,B,]2 [G,B,]2 [G,B,] | x8 | x8 | x8 | x8 | x8 | %10
 CCCC [CD][CD][CD][CD] | z"_cresc." [CD][B,D][B,D]- [B,D] [B,D]2 [B,D] | %12
 z [EG][EG][EG] z [EF][EF][EF] | z [EF][DF][DF]- [DF][DF] x2 | x8 | x8 | x8 | %17
 z"_dim." [EA][EA][EA] [EA][EA][EA]E | [C=E][CE][CE][CE] [CF][CF][CF][CF] | x8 | %20
 z [A,C]2 [A,C]2 [A,C]2 [B,_D] | z [A,C]2 [A,C] x4 | FE!<(!_CA,[I:staff +1] F,E,_C,A,,!<)! | x8 | %24
 x8 |[I:staff -1] A2 _G2 F2 [_A,B,]2 | x8 | x8 | z ([G,B,]2 [G,B,]2 [G,B,]2 [G,B,]) | x8 | x8 | %31
 x8 | z [B,_D]2 [B,D]2 [B,D]2 [B,D] | z [B,_D] z [B,D] z [B,D] z [B,D] | %34
 z [B,_D] z!<(! [B,D]!<)! z!>(! [B,D]!>)! z [B,D] | z [_CE] z [CE] z [CE] z [CE] | %36
 z [=CE] z [CE] z [CE] z [CE] | z [_DF] z [DF] z [DF] z [DF] | z [_DF] z [DF] z [FG] z [=EG] | %39
 x4 B,B,[B,C][B,C] | z [B,C][A,C]!<(![A,C]- [A,C]- [A,C]2 [A,C]!<)! | %41
 z [_DF][DF][DF] z [DE][DE][DE] | z!>(! [_DE][CE][CE]!>)! [C=E][CE] z !tenuto!C- | %43
 C !tenuto!_D2 !tenuto!C2 !tenuto!D2 !tenuto!C- | C !tenuto!_D2 !tenuto!C2 !tenuto!D2 D | x8 | x8 | %47
 x8 | x8 | x8 | x8 | x8 | x8 | x8 | z"_rit." [EF][EF][EF] z [_B,D] x2 | x8 | x8 | B,2 CD FE B, x | %58
 x8 | x4 [Ff][Ee][Dd] x | x8 | [CF]4 [A,=D]4 | x8 | x8 |] %64
V:7
 x8 | x8 | x8 | x8 | x8 | x8 | x8 | x8 | x8 | x8 | x8 | x8 | x8 | x8 | x8 | x8 | x8 | x8 | x8 | %19
 x8 | x8 | x8 | x8 | x8 | x8 | x8 | x8 | x8 | x8 | x8 | x8 | x8 | x8 | x8 | x8 | x8 | x8 | x8 | %38
 x8 | x8 | x8 | x8 | x8 | x8 | x8 | x8 | x8 | x8 | x8 | x8 | x8 | x8 | x8 | x8 | x8 | x8 | x8 | %57
 x8 | x8 | x4 F,E, x2 | x8 | x8 | x8 | x8 |] %64

